client/public/img/game/shared/particles/casings/casing_12ga_bird.svg

<?xml version="1.0" encoding="UTF-8" standalone="no"?>
<svg
   width="22"
   height="61"
   viewBox="0 0 22 61"
   fill="none"
   version="1.1"
   id="svg4"
   xmlns="http://www.w3.org/2000/svg"
   xmlns:svg="http://www.w3.org/2000/svg">
  <defs
     id="defs4" />
  <path
     d="M2.31543 53.4965V7.67139H19.183V53.4965H2.31543Z"
     fill="#8F7700"
     id="path1" />
  <path
     d="M2.31543 7.67109V1.1958H19.183V7.67109H2.31543Z"
     fill="#856E00"
     id="path2" />
  <path
     d="M2.31543 53.4967H19.1831V1.19629H2.31543V53.4967Z"
     stroke="#665500"
     stroke-width="2"
     stroke-miterlimit="3.99393"
     id="path3" />
  <path
     d="M1.37402 59.2379C1.37402 59.4474 1.54382 59.6172 1.75328 59.6172H19.746C19.9553 59.6172 20.1251 59.4474 20.1251 59.2381V58.4711C20.1251 58.2617 19.9553 58.092 19.746 58.092H19.3122V46.7358H2.18706V58.092H1.75328C1.54382 58.092 1.37402 58.2618 1.37402 58.4713V59.2379Z"
     fill="#B3B300"
     stroke="#666600"
     stroke-width="2"
     stroke-miterlimit="3.99393"
     id="path4" />
</svg>

<svg xmlns="http://www.w3.org/2000/svg" width="22" height="61" fill="none"><path fill="#8F7700" d="M2.315 53.497V7.67h16.868v45.826z"/><path fill="#856E00" d="M2.315 7.671V1.196h16.868V7.67z"/><path stroke="#650" stroke-miterlimit="3.994" stroke-width="2" d="M2.315 53.497h16.868v-52.3H2.315z"/><path fill="#B3B300" stroke="#660" stroke-miterlimit="3.994" stroke-width="2" d="M1.374 59.238c0 .21.17.38.38.38h17.992c.21 0 .38-.17.38-.38v-.767a.38.38 0 0 0-.38-.379h-.434V46.736H2.187v11.356h-.434a.38.38 0 0 0-.379.38z"/></svg>
